X: 14920
T: Gathering, The
R: hornpipe
M: 4/4
K: Gmajor
|DG|:B2dB cBcA|B2dB cBcA|Bdfe dcEF|(3ABA (3GFE D2 dc|
B2dB cBcA|B2dB cBcA|Bdfe dcEF|A2G2 G2 DG:|ga|
ba (3gab a2f2|gfeg f2B2|edcB cBAG|FdAF D2 ga|
ba (3gab a2f2|gfeg f2B2|edcB cAEF|A2G2 G2 ga|
ba (3gab a2f2|gfeg f2B2|edcB cBAG|FdAF D2 dc|
B2dB cBcA|B2dB cBcA|Bdfe dcEF|A2G2 G2DG|

